packages/foundations/assets/icons/functional/images/maps/parking.svg

<svg xmlns="http://www.w3.org/2000/svg" width="32" height="32" fill="none"><path fill="#1A1C1F" fill-rule="evenodd" d="M5.333 2.079c-1.338.035-1.386.046-2.019.476-.591.401-.948.895-1.215 1.681l-.126.369V27.41l.159.435c.384 1.053.97 1.642 2.005 2.017l.455.165h22.816l.455-.165c1.035-.375 1.621-.964 2.005-2.017l.159-.435V4.592l-.167-.459c-.304-.842-.808-1.43-1.548-1.805l-.398-.202-1.144-.048c-1.235-.051-19.46-.05-21.437.001m22.173 2.094c.127.083.278.245.346.374l.121.226v22.524l-.16.229a1.4 1.4 0 0 1-.347.338c-.186.109-.194.109-11.466.109-10.64 0-11.29-.005-11.451-.093a1.2 1.2 0 0 1-.318-.287c-.143-.187-.149-.223-.191-1.107-.025-.502-.037-5.605-.029-11.339L4.027 4.72l.146-.225c.224-.344.391-.41 1.134-.446.352-.018 5.44-.03 11.306-.027l10.667.005zM12.853 8.531c-.468.04-.77.207-1.009.559-.313.461-.295.074-.312 6.685-.015 5.916-.013 6.101.087 6.326.459 1.038 1.746 1.19 2.398.282.249-.346.27-.589.273-3.176l.003-2.099.12.032c.289.078 1.73.15 2.414.12 1.321-.059 2.383-.309 3.104-.732.497-.292 1.179-1.013 1.414-1.495.359-.739.417-1.05.418-2.272.001-1.066-.001-1.085-.164-1.573-.188-.563-.336-.838-.642-1.191-.814-.941-1.786-1.365-3.357-1.465-.858-.054-4.12-.055-4.747-.001m3.867 1.972c.667.035.919.069 1.154.159.859.327 1.163.88 1.176 2.138.016 1.448-.438 2.134-1.61 2.432-.383.097-1.902.126-2.707.051l-.44-.041v-4.789l.787.003c.433.002 1.171.023 1.64.047"/></svg>

<svg width="32" height="32" viewBox="0 0 32 32" fill="none" xmlns="http://www.w3.org/2000/svg"><path d="M5.333 2.079 C 3.995 2.114,3.947 2.125,3.314 2.555 C 2.723 2.956,2.366 3.450,2.099 4.236 L 1.973 4.605 1.973 16.008 L 1.973 27.410 2.132 27.845 C 2.516 28.898,3.102 29.487,4.137 29.862 L 4.592 30.027 16.000 30.027 L 27.408 30.027 27.863 29.862 C 28.898 29.487,29.484 28.898,29.868 27.845 L 30.027 27.410 30.027 16.001 L 30.027 4.592 29.860 4.133 C 29.556 3.291,29.052 2.703,28.312 2.328 L 27.914 2.126 26.770 2.078 C 25.535 2.027,7.310 2.028,5.333 2.079 M27.506 4.173 C 27.633 4.256,27.784 4.418,27.852 4.547 L 27.973 4.773 27.973 16.035 L 27.973 27.297 27.813 27.526 C 27.724 27.652,27.568 27.804,27.466 27.864 C 27.280 27.973,27.272 27.973,16.000 27.973 C 5.360 27.973,4.710 27.968,4.549 27.880 C 4.456 27.829,4.312 27.700,4.231 27.593 C 4.088 27.406,4.082 27.370,4.040 26.486 C 4.015 25.984,4.003 20.881,4.011 15.147 L 4.027 4.720 4.173 4.495 C 4.397 4.151,4.564 4.085,5.307 4.049 C 5.659 4.031,10.747 4.019,16.613 4.022 L 27.280 4.027 27.506 4.173 M12.853 8.531 C 12.385 8.571,12.083 8.738,11.844 9.090 C 11.531 9.551,11.549 9.164,11.532 15.775 C 11.517 21.691,11.519 21.876,11.619 22.101 C 12.078 23.139,13.365 23.291,14.017 22.383 C 14.266 22.037,14.287 21.794,14.290 19.207 L 14.293 17.108 14.413 17.140 C 14.702 17.218,16.143 17.290,16.827 17.260 C 18.148 17.201,19.210 16.951,19.931 16.528 C 20.428 16.236,21.110 15.515,21.345 15.033 C 21.704 14.294,21.762 13.983,21.763 12.761 C 21.764 11.695,21.762 11.676,21.599 11.188 C 21.411 10.625,21.263 10.350,20.957 9.997 C 20.143 9.056,19.171 8.632,17.600 8.532 C 16.742 8.478,13.480 8.477,12.853 8.531 M16.720 10.503 C 17.387 10.538,17.639 10.572,17.874 10.662 C 18.733 10.989,19.037 11.542,19.050 12.800 C 19.066 14.248,18.612 14.934,17.440 15.232 C 17.057 15.329,15.538 15.358,14.733 15.283 L 14.293 15.242 14.293 12.848 L 14.293 10.453 15.080 10.456 C 15.513 10.458,16.251 10.479,16.720 10.503 " fill="#1A1C1F" stroke="none" fill-rule="evenodd"></path></svg>
